X:5
T:ALYCRK3- Ally Croaker
S:from Riley's Flute Melodies, I, c 1815
Q:1/4=40
L:1/4
M:2/4
K:D
A|dd3/4d/4|d3/2d/|e/d/c/d/|(e3/4f/4)g/a/|(f3/4d/4)d/d/|\
d3/2 d/|(e/d/)c/d/|(e3/4f/4)g/z/|{f/g/}aa/a/|a3/2a/|b/a/g/f/|\
(e3/4f/4)g/z/|{e/f/}gg/g/|g3/2g/|a/g/f/e/|d3/4e/4f|\
d3/4d/4d3/4d/4|c3/2 d/4c/4|B3/2 c/4B/4|AA|g3/4g/4g/a/|\
(g f/) e/|f/d/g/e/|(c d/)|]

